X:1
T:Canon in D Violin Duet
T:Canon in D Violin Duet
T:Johann Pachelbel
C:Johann Pachelbel
%%score 1 2
L:1/8
Q:1/4=45
M:4/4
K:D
V:1 treble nm="Violin" snm="Vln."
V:2 treble nm="Violin" snm="Vln."
V:1
 z8 | z8 | f2 e2 d2 c2 | B2 A2 B2 c2 | d2 c2 B2 A2 | G2 F2 G2 E2 | %6
 ((((DF)))) ((AG)) ((FD)) ((FE)) | ((DB,)) ((D!2!A)) ((GB)) ((AG)) | ((FD)) ((Ec)) ((df)) ((aA)) | %9
 ((BG)) ((AF)) DTd d>c | d/c/d/D/ C/A/E/F/ D/d/c/B/ c/f/a/b/ | %11
 g/f/e/g/ f/e/d/c/ B/A/G/F/ E/G/F/E/ | D/E/F/G/ A/E/A/G/ F/B/A/G/ A/G/F/E/ | %13
 D/B,/B/c/ d/c/B/A/ G/F/E/B/ A/B/A/G/ | F!3!f e2 z vd f2 | b2 a2 b2 c'2 | d'!3!d c2 z vB d2 | %17
 d3 d dg ea | %18
 ((a/f/4g/4)) ((a/f/4g/4)) ((a/4A/4B/4c/4!1!d/4e/4f/4g/4)) ((uf/d/4e/4)) vf/((!1!F/4G/4 A/4B/4A/4G/4A/4F/4G/4A/4)) | %19
 ((G/B/4A/4 G/!2!F/4E/4)) ((F/4E/4D/4E/4F/4G/4A/4B/4)) ((G/B/4A/4 B/c/4d/4)) ((A/4B/4c/4d/4e/4f/4g/4a/4)) | %20
 ((f/d/4e/4 f/e/4d/4)) ((e/4c/4d/4e/4f/4e/4d/4c/4)) ((!3!d/B/4c/4 d/))((D/4E/4 F/4G/4F/4E/4F/4d/4c/4d/4)) | %21
 ((B/d/4c/4 B/A/4G/4)) ((A/4G/4F/4G/4A/4B/4c/4d/4)) ((B/d/4c/4 d/c/4B/4)) ((c/4d/4e/4d/4c/4d/4B/4c/4)) | %22
 d z c z B z d z | D z D z D z E z | z A z A z F z A | z G z F z !2!G z e | %26
 f/F/G/F/ !1!E/e/f/e/ d/F/D/B/ A/A,/G,/A,/ | B,/B/c/B/ A/A,/G,/A,/ B,/B/A/B/ c/C/B,/C/ | %28
 D/d/e/d/ c/C/D/C/ B,/B/A/B/ c/C/F/E/ | D/d/e/g/ f/F/A/f/ d/g/f/g/ e/A/G/A/ | %30
 F/A/A/A/ A/A/A/A/ F/F/F/F/ F/F/A/A/ | G/G/G/d/ d/d/d/d/ d/d/B/B/ A/A/e/c/ | %32
 A/!3!f/f/f/ e/e/e/e/ d/d/d/d/ a/a/a/a/ | b/b/b/b/ a/a/a/a/ b/b/b/b/ c'/!2!c/c/c/ | %34
 d/((D/4E/4F/))D/ C/((c/4d/4e/))c/ B/((B,/4C/4D/))B,/ C/((A/4G/4F/))E/ | %35
 D/((G/4F/4E/))G/ F/((D/4E/4F/))A/ G/((B/4A/4G/))F/ E/((A/4G/4F/))E/ | %36
 F/((d/4c/4d/))F/ A/((A/4B/4c/))!0!A/ !1!F/((d/4e/4f/))d/ f/((f/4e/4d/))!2!c/ | %37
 B/((B/4A/4B/))c/ !1!d/((f/4e/4d/))f/ g/((!3!d/4c/4B/))B/ A/E/!2!A/uA/ | A3 A D3 A | G2 A2 GD D>C | %40
 !0!D!3!d c2 B2 A2 | ((D>.E)) F2 B2 ((E>.E)) | %42
 F3/2 u!3!f/ ((f/g/))((f/e/)) d>!3!d ((d/e/))((d/c/)) | B2 d2 ((d/=c/))((B/c/)) ((A>.A)) | %44
 A3/2 a/ ((a/b/))((a/g/)) f>f ((f/g/))((f/e/)) | ((d/=c/))((B/c/)) A>A Gd ^c>c | d d2 c2 B2 A- | %47
 A G2 ((((F F>))E)) E2 | !1!F !3!f2 e d !4!d'2 =c' | b2 ((d'a)) b2 a2 | !2!a2 ((A>G)) F2 ((f>e)) | %51
 d3 d d2 c2 | !1!dD Cc B!2!B, A,A | !1!Gg f!2!F EB Ee | fF Ee dD Cc | Bb aA GeAA | A8 | z8 | z8 | %59
 z8 | z8 |] %61
V:2
 z8 | z8 | z8 | z8 | f2 e2 d2 c2 | B2 A2 B2 c2 | d2 c2 B2 A2 | G2 F2 G2 E2 | %8
 ((((((DF)))))) ((((AG)))) ((((FD)))) ((((FE)))) | %9
 ((((DB,)))) ((((D!2!A)))) ((((GB)))) ((((AG)))) | ((((FD)))) ((((Ec)))) ((((df)))) ((((aA)))) | %11
 ((((BG)))) ((((AF)))) DTd d>c | d/c/d/D/ C/A/E/F/ D/d/c/B/ c/f/a/b/ | %13
 g/f/e/g/ f/e/d/c/ B/A/G/F/ E/G/F/E/ | D/E/F/G/ A/E/A/G/ F/B/A/G/ A/G/F/E/ | %15
 D/B,/B/c/ d/c/B/A/ G/F/E/B/ A/B/A/G/ | F!3!f e2 z vd f2 | b2 a2 b2 c'2 | d'!3!d c2 z vB d2 | %19
 d3 d dg ea | %20
 ((((a/f/4g/4)))) ((((a/f/4g/4)))) ((((a/4A/4B/4c/4!1!d/4e/4f/4g/4)))) ((((uf/d/4e/4)))) vf/((((!1!F/4G/4 A/4B/4A/4G/4A/4F/4G/4A/4)))) | %21
 ((((G/B/4A/4 G/!2!F/4E/4)))) ((((F/4E/4D/4E/4F/4G/4A/4B/4)))) ((((G/B/4A/4 B/c/4d/4)))) ((((A/4B/4c/4d/4e/4f/4g/4a/4)))) | %22
 ((((f/d/4e/4 f/e/4d/4)))) ((((e/4c/4d/4e/4f/4e/4d/4c/4)))) ((((!3!d/B/4c/4 d/))))((((D/4E/4 F/4G/4F/4E/4F/4d/4c/4d/4)))) | %23
 ((((B/d/4c/4 B/A/4G/4)))) ((((A/4G/4F/4G/4A/4B/4c/4d/4)))) ((((B/d/4c/4 d/c/4B/4)))) ((((c/4d/4e/4d/4c/4d/4B/4c/4)))) | %24
 d z c z B z d z | D z D z D z E z | z A z A z F z A | z G z F z !2!G z e | %28
 f/F/G/F/ !1!E/e/f/e/ d/F/D/B/ A/A,/G,/A,/ | B,/B/c/B/ A/A,/G,/A,/ B,/B/A/B/ c/C/B,/C/ | %30
 D/d/e/d/ c/C/D/C/ B,/B/A/B/ c/C/F/E/ | D/d/e/g/ f/F/A/f/ d/g/f/g/ e/A/G/A/ | %32
 F/A/A/A/ A/A/A/A/ F/F/F/F/ F/F/A/A/ | G/G/G/d/ d/d/d/d/ d/d/B/B/ A/A/e/c/ | %34
 A/!3!f/f/f/ e/e/e/e/ d/d/d/d/ a/a/a/a/ | b/b/b/b/ a/a/a/a/ b/b/b/b/ c'/!2!c/c/c/ | %36
 d/((((D/4E/4F/))))D/ C/((((c/4d/4e/))))c/ B/((((B,/4C/4D/))))B,/ C/((((A/4G/4F/))))E/ | %37
 D/((((G/4F/4E/))))G/ F/((((D/4E/4F/))))A/ G/((((B/4A/4G/))))F/ E/((((A/4G/4F/))))E/ | %38
 F/((((d/4c/4d/))))F/ A/((((A/4B/4c/))))!0!A/ !1!F/((((d/4e/4f/))))d/ f/((((f/4e/4d/))))!2!c/ | %39
 B/((((B/4A/4B/))))c/ !1!d/((((f/4e/4d/))))f/ g/((((!3!d/4c/4B/))))B/ A/E/!2!A/uA/ | A3 A D3 A | %41
 G2 A2 GD D>C | !0!D!3!d c2 B2 A2 | ((((D>.E)))) F2 B2 ((((E>.E)))) | %44
 F3/2 u!3!f/ ((((f/g/))))((((f/e/)))) d>!3!d ((((d/e/))))((((d/c/)))) | %45
 B2 d2 ((((d/=c/))))((((B/c/)))) ((((A>.A)))) | %46
 A3/2 a/ ((((a/b/))))((((a/g/)))) f>f ((((f/g/))))((((f/e/)))) | %47
 ((((d/=c/))))((((B/c/)))) A>A Gd ^c>c | d d2 c2 B2 A- | A G2 ((((F F>))E)) E2 | %50
 !1!F !3!f2 e d !4!d'2 =c' | b2 d'a b2 a2 | !2!a2 A>G F2 f>e | d3 d d2 c2 | !1!dD Cc B!2!B, A,A | %55
 !1!Gg f!2!F EB Ee | f8 | z8 | z8 | z8 | z8 |] %61

